src/resources/icons-social-media/src/social-media/spotify-color.svg

<?xml version="1.0" encoding="UTF-8"?>
<svg width="48px" height="48px" viewBox="0 0 48 48" version="1.1" xmlns="http://www.w3.org/2000/svg" xmlns:xlink="http://www.w3.org/1999/xlink">
    <title>EC/Icons/Social/2XL_48x48px/Icon-Spotify/Colour</title>
    <defs>
        <polygon id="path-1" points="2 2 46 2 46 46 2 46"></polygon>
    </defs>
    <g id="EC/Icons/Social/2XL_48x48px/Icon-Spotify/Colour" stroke="none" stroke-width="1" fill="none" fill-rule="evenodd">
        <mask id="mask-2" fill="white">
            <use xlink:href="#path-1"></use>
        </mask>
        <g id="Clip-2"></g>
        <path d="M23.9997937,1.99917498 C11.8501798,1.99917498 1.9995875,11.8498597 1.9995875,23.9995875 C1.9995875,36.1506903 11.8501798,46 23.9997937,46 C36.1507827,46 46,36.1506903 46,23.9995875 C46,11.8498597 36.1507827,1.99917498 23.9997937,1.99917498" id="Fill-1" fill="#1ED760" mask="url(#mask-2)"></path>
        <path d="M33.5794304,32.42439 C34.2204001,32.8251153 34.420448,33.6794394 34.0298783,34.3347923 C33.6393086,34.9887537 32.8037345,35.1960734 32.1641256,34.7967395 C27.0513371,31.6006768 20.615783,30.8785364 13.0357373,32.649798 C12.3049501,32.8209411 11.5782456,32.3520368 11.4108586,31.6062425 C11.2434715,30.8590567 11.699363,30.1146538 12.431511,29.9435107 C20.7260135,28.0052803 27.8406417,28.8387333 33.5794304,32.42439 Z M36.136505,25.8847755 C36.9339748,26.3884649 37.1843749,27.4570658 36.6944617,28.2710391 C36.2018268,29.0891866 35.1566786,29.3452055 34.3592088,28.8429075 C28.507468,25.1668093 19.5856045,24.0995999 12.6628589,26.2493242 C11.7646847,26.5262143 10.8161584,26.0086107 10.5439844,25.0930647 C10.2731713,24.1747358 10.7794149,23.2063163 11.6762282,22.9280349 C19.5842436,20.4749837 29.4138074,21.6618542 36.136505,25.8847755 Z M39.0024972,18.3781329 C39.9700757,18.9666982 40.2885193,20.2440101 39.7142322,21.2319093 C39.139945,22.2198085 37.8893055,22.5467893 36.9244487,21.9596154 C29.9064423,17.6977347 18.3281606,17.3053578 11.6285977,19.3841204 C10.5521496,19.7194495 9.41446231,19.0974904 9.08785351,17.9968872 C8.76260559,16.896284 9.36819273,15.7344589 10.4460017,15.4005211 C18.1376388,13.0128661 30.9230122,13.473422 39.0024972,18.3781329 Z" id="Combined-Shape" fill="#FFFFFF" fill-rule="nonzero" mask="url(#mask-2)"></path>
    </g>
</svg>

<?xml version="1.0" encoding="UTF-8" ?>
<svg
  xmlns="http://www.w3.org/2000/svg"
  xmlns:xlink="http://www.w3.org/1999/xlink"
  viewBox="0 0 48 48"
><defs><style
    >.cls-1{fill:none;}.cls-2{mask:url(#mask);}.cls-3{fill:#1ed760;}.cls-3,.cls-4{fill-rule:evenodd;}.cls-4{fill:#fff;}</style><mask
      id="mask"
      x="2"
      y="2"
      width="44"
      height="44"
      maskUnits="userSpaceOnUse"
    /></defs><g id="transparant_bg"><rect
      class="cls-1"
      y="0"
      width="48"
      height="48"
    /></g><g id="Layer_1"><g
      id="Component_type_Icons_Icon_type_Social_Size_2XL_48x48px_Subject_Icon-Spotify_Style_Colour_Webtools_False"
    ><g class="cls-2"><g><path
            id="Fill_1"
            class="cls-3"
            d="M24,2C11.85,2,2,11.85,2,24s9.85,22,22,22,22-9.85,22-22S36.15,2,24,2Z"
          /><path
            id="Combined_Shape"
            class="cls-4"
            d="M36.92,21.96c-7.02-4.26-18.6-4.65-25.3-2.58-1.08,.34-2.21-.29-2.54-1.39-.33-1.1,.28-2.26,1.36-2.6,7.69-2.39,20.48-1.93,28.56,2.98,.97,.59,1.29,1.87,.71,2.85-.57,.99-1.82,1.31-2.79,.73Zm-.23,6.31c-.49,.82-1.54,1.07-2.34,.57-5.85-3.68-14.77-4.74-21.7-2.59-.9,.28-1.85-.24-2.12-1.16-.27-.92,.24-1.89,1.13-2.17,7.91-2.45,17.74-1.27,24.46,2.96,.8,.5,1.05,1.57,.56,2.39Zm-4.53,6.53c.64,.4,1.48,.19,1.87-.46,.39-.66,.19-1.51-.45-1.91-5.74-3.59-12.85-4.42-21.15-2.48-.73,.17-1.19,.92-1.02,1.66,.17,.75,.89,1.21,1.62,1.04,7.58-1.77,14.02-1.05,19.13,2.15Z"
          /></g></g></g></g></svg>
